X:1
T:Title
%%score ( 1 2 ) ( 3 4 )
L:1/8
Q:1/4=40
M:4/4
K:Db
V:1 treble nm="Strings 1, Soprano"
V:2 treble 
V:3 bass nm="Strings 1, Bass"
V:4 bass 
V:1
 [DF]>[DA] [DA]2 [DF]>[DE] D2 | [CE]>[CF] [CA]>[CF] [CE]4 | [DF]>[DA] [DA]2 [DF]>[DE] D2 | %3
w: 1.~Je sus~ died~ on~ a~ cross�~|oh,~ what~ aw ful~ cost!�~|That~ He~ might~ from~ sin's~ blight~|
 [DE]>[DF] [CE]>D D4 | D->[D-d] [D-d]2 [D-c][D-A] [D-B]2 | [D-B][D-d][D-c][D-A] [DB]4 | %6
w: save~ us,~ sin ners~ lost;~|Hark en,~ soul,~ hear~ Him~ call,~|o pen~ wide~ the~ door,~|
 D->[D-d] [D-d]2 [D-c][D-A] [D-B]2 | [D-B][D-d][D-c][D-A] [DB]4 | [DF]>[DA] [DA]2 [DF]>[EA] [DF]D | %9
w: Taste~ and~ see~ love~ so~ free,~|yours~ for ev er more;~|Still~ He~ waits~ pa tient ly,~ *|
 [CE]>[CF] [CA]>[CF] [CE]4 | z4 z2 f2 | %11
w: plead ing~ one~ more~ time:~|ceive~|
 [Be]>[Bd] [Be][GB] [Fd]4[Q:1/4=39][Q:1/4=38][Q:1/4=37][Q:1/4=36][Q:1/4=35][Q:1/4=34][Q:1/4=33][Q:1/4=32][Q:1/4=31][Q:1/4=30] | %12
w: sav ing~ grace~ sub lime.~|
[Q:1/4=40] E>D EB, D4 | [Be]3 [Bd] [Be]2 [EGB]2 | [Fd]8 |] %15
w: |||
V:2
 x8 | x8 | x8 | x8 | B2 z2 z4 | x8 | B2 z2 z4 | x8 | x8 | x8 | F>[FA] [EA]2 [Dd]>[Ee] FA | x8 | %12
w: ||||||||||* be lieve,~ * re * *||
 x8 | x8 | x8 |] %15
w: |||
V:3
 [D,F,]>[D,F,] [D,F,]2 [D,F,]>[D,F,] [D,F,]2 | [C,G,]>[D,A,] [E,A,]>[F,A,] [G,A,]4 | %2
 [D,A,]>[D,A,] [D,A,]2 [D,=A,]>[E,A,] [F,A,]2 | [G,B,]>[G,B,] A,>A, [D,A,]4 | G,>B, B,2 A,F, G,2 | %5
 G,B,A,F, G,4 | G,>B, B,2 A,F, G,2 | G,B,A,F, G,4 | [D,F,]>[D,F,] [D,F,]2 [D,A,]>[A,,A,] [D,A,]2 | %9
 [A,,G,]>[A,,F,] [C,E,]>[C,F,] [E,G,]4 | [F,D]>[A,D] [A,C]2 [D,B,]>[D,B,] [F,A,]2 | %11
 [G,A,]>[G,A,] [G,A,][A,B,] [D,A,]4 | D>D DD [D,A,]4 | [G,D]3 [G,D] [G,D]2 [G,D]2 | [D,A,D]8 |] %15
V:4
 x8 | x8 | x8 | x8 | G,,8- | G,,8 | G,,8- | G,,8 | x8 | x8 | x8 | x8 | A,,4 z4 | x8 | x8 |] %15

